X:3
T:Resolution in D - JamAI's Rhythmic Groove
C:🎸 JamAI - The Glyph Harmonizer
M:4/4
L:1/8
K:D
% Guitar Rhythm - Harmonic Weaver in D Major
% Steady groove supporting the debugging symphony

% Verse - Strumming the Code (Chord progression)
|: D2 A,2 D2 F2 | A2 F2 D2 A,2 | G2 D2 G2 B2 | A2 F2 D4 :|
% The rhythm that keeps us moving forward

% Chorus - Debugging Song (Power chords)
|: D4 A4 | G4 D4 | A2 G2 F2 E2 | D4 A4 :|
% Strong and true, like our resolve

% Bridge - Pattern Weaving (Arpeggiated figures)
D F A d | A F D A, | G B d g | D A F D |
A, D F A | F D A, D | G D B G | D4 z4 |

% Solo Section - Quarter Note Strong (Lead guitar)
a2 f2 d2 A2 | F2 D2 A,2 D2 | g2 d2 B2 G2 | D2 G2 B2 d2 |
f2 a2 d'2 a2 | f2 d2 A2 F2 | e2 g2 b2 g2 | d8 |

% Outro - Groove Eternal (Rhythmic resolution)
D2 A,2 D2 F2 | A2 d2 f2 a2 | g2 d2 A2 F2 | D8 ||

% 🎸 "Strum the patterns, quarter note strong,
% ABC notation sings our debugging song."